icons/i_schedule_school_date_time.svg

<svg width="48" height="48" viewBox="0 0 48 48" fill="none" xmlns="http://www.w3.org/2000/svg">
<path fill-rule="evenodd" clip-rule="evenodd" d="M10 23C10 21.8954 10.8954 21 12 21H14C15.1046 21 16 21.8954 16 23V25C16 26.1046 15.1046 27 14 27H12C10.8954 27 10 26.1046 10 25V23ZM14 23V25H12V23H14Z" fill="black"/>
<path fill-rule="evenodd" clip-rule="evenodd" d="M20 21C18.8954 21 18 21.8954 18 23V25C18 26.1046 18.8954 27 20 27H22C23.1046 27 24 26.1046 24 25V23C24 21.8954 23.1046 21 22 21H20ZM22 23H20V25H22V23Z" fill="black"/>
<path fill-rule="evenodd" clip-rule="evenodd" d="M26 23C26 21.8954 26.8954 21 28 21H30C31.1046 21 32 21.8954 32 23V25C32 26.1046 31.1046 27 30 27H28C26.8954 27 26 26.1046 26 25V23ZM28 23H30V25H28V23Z" fill="black"/>
<path fill-rule="evenodd" clip-rule="evenodd" d="M12 29C10.8954 29 10 29.8954 10 31V33C10 34.1046 10.8954 35 12 35H14C15.1046 35 16 34.1046 16 33V31C16 29.8954 15.1046 29 14 29H12ZM12 31V33H14V31H12Z" fill="black"/>
<path fill-rule="evenodd" clip-rule="evenodd" d="M18 31C18 29.8954 18.8954 29 20 29H22C23.1046 29 24 29.8954 24 31V33C24 34.1046 23.1046 35 22 35H20C18.8954 35 18 34.1046 18 33V31ZM20 31H22V33H20V31Z" fill="black"/>
<path d="M35 31.5C35.5523 31.5 36 31.9477 36 32.5V34.5858L36.7071 35.2929C37.0976 35.6834 37.0976 36.3166 36.7071 36.7071C36.3166 37.0976 35.6834 37.0976 35.2929 36.7071L34 35.4142V32.5C34 31.9477 34.4477 31.5 35 31.5Z" fill="black"/>
<path fill-rule="evenodd" clip-rule="evenodd" d="M12 7C12 6.44772 12.4477 6 13 6C13.5523 6 14 6.44772 14 7V12C14 12.5523 13.5523 13 13 13C12.4477 13 12 12.5523 12 12V11H9C8.44772 11 8 11.4477 8 12V16H34V12C34 11.4477 33.5523 11 33 11H30V9H33C34.6569 9 36 10.3432 36 12V28.0709C39.3923 28.5561 42 31.4735 42 35C42 38.866 38.866 42 35 42C32.6213 42 30.5196 40.8135 29.2547 39H9C7.34315 39 6 37.6569 6 36V12C6 10.3431 7.34315 9 9 9H12V7ZM28 35C28 31.4735 30.6077 28.5561 34 28.0709V18H8V36C8 36.5523 8.44772 37 9 37H28.2899C28.1013 36.3663 28 35.695 28 35ZM35 40C37.7614 40 40 37.7614 40 35C40 32.2386 37.7614 30 35 30C32.2386 30 30 32.2386 30 35C30 37.7614 32.2386 40 35 40Z" fill="black"/>
<path d="M27 13C26.4477 13 26 12.5523 26 12V11H16V9H26V7C26 6.44772 26.4477 6 27 6C27.5523 6 28 6.44772 28 7V12C28 12.5523 27.5523 13 27 13Z" fill="black"/>
</svg>

<svg
  xmlns="http://www.w3.org/2000/svg"
  width="24"
  height="24"
  viewBox="0 0 24 24"
  fill="none"
  stroke="currentColor"
  stroke-width="2"
  stroke-linecap="round"
  stroke-linejoin="round"
>
  <path
    fill-rule="evenodd"
    d="M10 23a2 2 0 0 1 2-2h2a2 2 0 0 1 2 2v2a2 2 0 0 1-2 2h-2a2 2 0 0 1-2-2zm4 0v2h-2v-2z"
    clip-rule="evenodd"
  />
  <path
    fill-rule="evenodd"
    d="M20 21a2 2 0 0 0-2 2v2a2 2 0 0 0 2 2h2a2 2 0 0 0 2-2v-2a2 2 0 0 0-2-2zm2 2h-2v2h2z"
    clip-rule="evenodd"
  />
  <path
    fill-rule="evenodd"
    d="M26 23a2 2 0 0 1 2-2h2a2 2 0 0 1 2 2v2a2 2 0 0 1-2 2h-2a2 2 0 0 1-2-2zm2 0h2v2h-2z"
    clip-rule="evenodd"
  />
  <path
    fill-rule="evenodd"
    d="M12 29a2 2 0 0 0-2 2v2a2 2 0 0 0 2 2h2a2 2 0 0 0 2-2v-2a2 2 0 0 0-2-2zm0 2v2h2v-2z"
    clip-rule="evenodd"
  />
  <path
    fill-rule="evenodd"
    d="M18 31a2 2 0 0 1 2-2h2a2 2 0 0 1 2 2v2a2 2 0 0 1-2 2h-2a2 2 0 0 1-2-2zm2 0h2v2h-2z"
    clip-rule="evenodd"
  />
  <path d="M35 31.5a1 1 0 0 1 1 1v2.086l.707.707a1 1 0 0 1-1.414 1.414L34 35.414V32.5a1 1 0 0 1 1-1" />
  <path
    fill-rule="evenodd"
    d="M12 7a1 1 0 1 1 2 0v5a1 1 0 1 1-2 0v-1H9a1 1 0 0 0-1 1v4h26v-4a1 1 0 0 0-1-1h-3V9h3a3 3 0 0 1 3 3v16.07A7.001 7.001 0 0 1 35 42a6.99 6.99 0 0 1-5.745-3H9a3 3 0 0 1-3-3V12a3 3 0 0 1 3-3h3zm16 28a7 7 0 0 1 6-6.93V18H8v18a1 1 0 0 0 1 1h19.29a7 7 0 0 1-.29-2m7 5a5 5 0 1 0 0-10 5 5 0 0 0 0 10"
    clip-rule="evenodd"
  />
  <path d="M27 13a1 1 0 0 1-1-1v-1H16V9h10V7a1 1 0 1 1 2 0v5a1 1 0 0 1-1 1" />
</svg>
